static/images/ninacarducci/logo/nina-carducci.svg

<svg width="177" height="21" viewBox="0 0 177 21" fill="none" xmlns="http://www.w3.org/2000/svg">
<path d="M16.7623 1.09091V20H13.3091L5.08256 8.09872H4.94407V20H0.9462V1.09091H4.45472L12.6167 12.983H12.7828V1.09091H16.7623ZM19.9915 20V5.81818H23.9247V20H19.9915ZM21.9673 3.99006C21.3826 3.99006 20.8809 3.79616 20.4624 3.40838C20.05 3.01444 19.8438 2.54356 19.8438 1.99574C19.8438 1.45407 20.05 0.989346 20.4624 0.601562C20.8809 0.207622 21.3826 0.0106524 21.9673 0.0106524C22.5521 0.0106524 23.0507 0.207622 23.4631 0.601562C23.8816 0.989346 24.0909 1.45407 24.0909 1.99574C24.0909 2.54356 23.8816 3.01444 23.4631 3.40838C23.0507 3.79616 22.5521 3.99006 21.9673 3.99006ZM31.0087 11.8011V20H27.0755V5.81818H30.824V8.32031H30.9902C31.3042 7.4955 31.8304 6.84304 32.5691 6.36293C33.3077 5.87666 34.2033 5.63352 35.2559 5.63352C36.2407 5.63352 37.0994 5.84896 37.8319 6.27983C38.5643 6.7107 39.1337 7.32623 39.54 8.12642C39.9462 8.92045 40.1493 9.86837 40.1493 10.9702V20H36.2161V11.6719C36.2222 10.804 36.0007 10.1269 35.5513 9.64062C35.102 9.1482 34.4834 8.90199 33.6955 8.90199C33.1661 8.90199 32.6983 9.01586 32.2921 9.24361C31.892 9.47135 31.5781 9.80374 31.3503 10.2408C31.1287 10.6716 31.0149 11.1918 31.0087 11.8011ZM47.2933 20.2678C46.3885 20.2678 45.5821 20.1108 44.8743 19.7969C44.1664 19.4768 43.6063 19.0059 43.1939 18.3842C42.7876 17.7564 42.5845 16.9747 42.5845 16.0391C42.5845 15.2512 42.7292 14.5895 43.0185 14.054C43.3078 13.5185 43.7017 13.0876 44.2003 12.7614C44.6989 12.4351 45.2652 12.1889 45.8991 12.0227C46.5393 11.8565 47.2102 11.7396 47.9119 11.6719C48.7367 11.5857 49.4015 11.5057 49.9062 11.4318C50.411 11.3518 50.7772 11.2348 51.005 11.081C51.2327 10.9271 51.3466 10.6993 51.3466 10.3977V10.3423C51.3466 9.75758 51.1619 9.30516 50.7926 8.98508C50.4295 8.66501 49.9124 8.50497 49.2415 8.50497C48.5336 8.50497 47.9704 8.66193 47.5518 8.97585C47.1333 9.28362 46.8563 9.6714 46.7209 10.1392L43.0831 9.84375C43.2678 8.98201 43.6309 8.23722 44.1726 7.60938C44.7143 6.97538 45.4129 6.48911 46.2685 6.15057C47.1302 5.80587 48.1274 5.63352 49.2599 5.63352C50.0478 5.63352 50.8018 5.72585 51.522 5.91051C52.2483 6.09517 52.8916 6.38139 53.4517 6.76918C54.018 7.15696 54.4643 7.65554 54.7905 8.26491C55.1167 8.86813 55.2798 9.59138 55.2798 10.4347V20H51.5497V18.0334H51.4389C51.2112 18.4766 50.9065 18.8674 50.5249 19.206C50.1432 19.5384 49.6847 19.8 49.1491 19.9908C48.6136 20.1754 47.995 20.2678 47.2933 20.2678ZM48.4197 17.5533C48.9983 17.5533 49.5092 17.4394 49.9524 17.2116C50.3956 16.9777 50.7434 16.6638 50.9957 16.2699C51.2481 15.8759 51.3743 15.4297 51.3743 14.9311V13.4261C51.2512 13.5062 51.0819 13.58 50.8665 13.6477C50.6572 13.7093 50.4202 13.7678 50.1555 13.8232C49.8909 13.8724 49.6262 13.9186 49.3615 13.9616C49.0968 13.9986 48.8568 14.0324 48.6413 14.0632C48.1797 14.1309 47.7765 14.2386 47.4318 14.3864C47.0871 14.5341 46.8194 14.7341 46.6286 14.9865C46.4377 15.2327 46.3423 15.5405 46.3423 15.9098C46.3423 16.4453 46.5362 16.8546 46.924 17.1378C47.3179 17.4148 47.8165 17.5533 48.4197 17.5533ZM81.1067 7.71094H77.0627C76.9888 7.18774 76.838 6.72301 76.6103 6.31676C76.3825 5.90436 76.0901 5.5535 75.7331 5.2642C75.3761 4.9749 74.9637 4.75331 74.4959 4.59943C74.0343 4.44555 73.5326 4.36861 72.9909 4.36861C72.0123 4.36861 71.1597 4.61174 70.4334 5.09801C69.7071 5.57812 69.1439 6.27983 68.7438 7.20312C68.3437 8.12026 68.1436 9.23437 68.1436 10.5455C68.1436 11.8935 68.3437 13.026 68.7438 13.9432C69.15 14.8603 69.7163 15.5528 70.4426 16.0206C71.169 16.4884 72.0092 16.7223 72.9632 16.7223C73.4988 16.7223 73.9943 16.6515 74.4498 16.5099C74.9114 16.3684 75.3207 16.1622 75.6777 15.8913C76.0347 15.6143 76.3302 15.2789 76.5641 14.8849C76.8042 14.491 76.9703 14.0417 77.0627 13.5369L81.1067 13.5554C81.0021 14.4233 80.7405 15.2604 80.3219 16.0668C79.9095 16.867 79.3525 17.584 78.6507 18.218C77.9552 18.8459 77.1242 19.3445 76.1578 19.7138C75.1976 20.0769 74.1112 20.2585 72.8986 20.2585C71.2121 20.2585 69.704 19.8769 68.3745 19.1136C67.0511 18.3504 66.0047 17.2455 65.2353 15.799C64.472 14.3525 64.0904 12.6013 64.0904 10.5455C64.0904 8.48343 64.4782 6.72917 65.2537 5.28267C66.0293 3.83617 67.0819 2.73437 68.4114 1.97727C69.7409 1.21401 71.2367 0.832386 72.8986 0.832386C73.9943 0.832386 75.0099 0.986268 75.9455 1.29403C76.8873 1.6018 77.7213 2.05114 78.4476 2.64204C79.1739 3.2268 79.7649 3.94389 80.2203 4.79332C80.682 5.64276 80.9775 6.61529 81.1067 7.71094ZM87.9437 20.2678C87.0389 20.2678 86.2325 20.1108 85.5247 19.7969C84.8168 19.4768 84.2567 19.0059 83.8443 18.3842C83.438 17.7564 83.2349 16.9747 83.2349 16.0391C83.2349 15.2512 83.3796 14.5895 83.6689 14.054C83.9582 13.5185 84.3521 13.0876 84.8507 12.7614C85.3493 12.4351 85.9155 12.1889 86.5495 12.0227C87.1897 11.8565 87.8606 11.7396 88.5623 11.6719C89.3871 11.5857 90.0519 11.5057 90.5566 11.4318C91.0614 11.3518 91.4276 11.2348 91.6554 11.081C91.8831 10.9271 91.997 10.6993 91.997 10.3977V10.3423C91.997 9.75758 91.8123 9.30516 91.443 8.98508C91.0798 8.66501 90.5628 8.50497 89.8919 8.50497C89.184 8.50497 88.6208 8.66193 88.2022 8.97585C87.7837 9.28362 87.5067 9.6714 87.3713 10.1392L83.7335 9.84375C83.9181 8.98201 84.2813 8.23722 84.823 7.60938C85.3646 6.97538 86.0633 6.48911 86.9189 6.15057C87.7806 5.80587 88.7778 5.63352 89.9103 5.63352C90.6982 5.63352 91.4522 5.72585 92.1724 5.91051C92.8987 6.09517 93.542 6.38139 94.1021 6.76918C94.6684 7.15696 95.1146 7.65554 95.4409 8.26491C95.7671 8.86813 95.9302 9.59138 95.9302 10.4347V20H92.2001V18.0334H92.0893C91.8616 18.4766 91.5569 18.8674 91.1752 19.206C90.7936 19.5384 90.335 19.8 89.7995 19.9908C89.264 20.1754 88.6454 20.2678 87.9437 20.2678ZM89.0701 17.5533C89.6487 17.5533 90.1596 17.4394 90.6028 17.2116C91.046 16.9777 91.3938 16.6638 91.6461 16.2699C91.8985 15.8759 92.0247 15.4297 92.0247 14.9311V13.4261C91.9016 13.5062 91.7323 13.58 91.5169 13.6477C91.3076 13.7093 91.0706 13.7678 90.8059 13.8232C90.5413 13.8724 90.2766 13.9186 90.0119 13.9616C89.7472 13.9986 89.5072 14.0324 89.2917 14.0632C88.8301 14.1309 88.4269 14.2386 88.0822 14.3864C87.7375 14.5341 87.4698 14.7341 87.2789 14.9865C87.0881 15.2327 86.9927 15.5405 86.9927 15.9098C86.9927 16.4453 87.1866 16.8546 87.5744 17.1378C87.9683 17.4148 88.4669 17.5533 89.0701 17.5533ZM98.9817 20V5.81818H102.795V8.29261H102.943C103.201 7.4124 103.635 6.74763 104.244 6.2983C104.854 5.8428 105.556 5.61506 106.35 5.61506C106.547 5.61506 106.759 5.62737 106.987 5.65199C107.214 5.67661 107.414 5.71046 107.587 5.75355V9.24361C107.402 9.18821 107.147 9.13897 106.82 9.09588C106.494 9.05279 106.196 9.03125 105.925 9.03125C105.346 9.03125 104.829 9.15743 104.374 9.4098C103.924 9.65601 103.567 10.0007 103.303 10.4439C103.044 10.8871 102.915 11.398 102.915 11.9766V20H98.9817ZM114.186 20.2308C113.109 20.2308 112.133 19.9538 111.259 19.3999C110.391 18.8397 109.702 18.018 109.191 16.9347C108.686 15.8452 108.434 14.5095 108.434 12.9276C108.434 11.3026 108.696 9.95147 109.219 8.87429C109.742 7.79096 110.438 6.98153 111.305 6.44602C112.179 5.90436 113.137 5.63352 114.177 5.63352C114.971 5.63352 115.633 5.76894 116.162 6.03977C116.697 6.30445 117.128 6.63684 117.455 7.03693C117.787 7.43087 118.039 7.81865 118.212 8.20028H118.332V1.09091H122.256V20H118.378V17.7287H118.212C118.027 18.1226 117.765 18.5135 117.427 18.9013C117.094 19.2829 116.661 19.5999 116.125 19.8523C115.596 20.1046 114.949 20.2308 114.186 20.2308ZM115.433 17.1009C116.067 17.1009 116.602 16.9285 117.039 16.5838C117.482 16.233 117.821 15.7436 118.055 15.1158C118.295 14.4879 118.415 13.7524 118.415 12.9091C118.415 12.0658 118.298 11.3333 118.064 10.7116C117.83 10.09 117.491 9.60985 117.048 9.27131C116.605 8.93276 116.067 8.76349 115.433 8.76349C114.786 8.76349 114.241 8.93892 113.798 9.28977C113.355 9.64062 113.02 10.1269 112.792 10.7486C112.564 11.3703 112.45 12.0904 112.45 12.9091C112.45 13.7339 112.564 14.4633 112.792 15.0973C113.026 15.7251 113.361 16.2176 113.798 16.5746C114.241 16.9254 114.786 17.1009 115.433 17.1009ZM134.584 13.9616V5.81818H138.517V20H134.741V17.424H134.593C134.273 18.255 133.741 18.9228 132.996 19.4276C132.257 19.9323 131.356 20.1847 130.291 20.1847C129.343 20.1847 128.509 19.9692 127.789 19.5384C127.068 19.1075 126.505 18.495 126.099 17.701C125.699 16.907 125.496 15.956 125.49 14.848V5.81818H129.423V14.1463C129.429 14.9834 129.654 15.6451 130.097 16.1314C130.54 16.6177 131.134 16.8608 131.879 16.8608C132.353 16.8608 132.796 16.7531 133.208 16.5376C133.621 16.3161 133.953 15.9898 134.205 15.5589C134.464 15.1281 134.59 14.5956 134.584 13.9616ZM148.071 20.277C146.618 20.277 145.369 19.9692 144.322 19.3537C143.282 18.732 142.482 17.8703 141.922 16.7685C141.368 15.6667 141.091 14.3987 141.091 12.9645C141.091 11.5118 141.371 10.2377 141.931 9.14204C142.497 8.04025 143.301 7.18158 144.341 6.56605C145.381 5.94437 146.618 5.63352 148.053 5.63352C149.29 5.63352 150.373 5.85819 151.303 6.30753C152.232 6.75686 152.968 7.38778 153.509 8.20028C154.051 9.01278 154.349 9.96686 154.405 11.0625H150.693C150.589 10.3546 150.312 9.78527 149.862 9.3544C149.419 8.91738 148.837 8.69886 148.117 8.69886C147.508 8.69886 146.975 8.86506 146.52 9.19744C146.071 9.52367 145.72 10.0007 145.467 10.6286C145.215 11.2564 145.089 12.0166 145.089 12.9091C145.089 13.8139 145.212 14.5833 145.458 15.2173C145.71 15.8513 146.064 16.3345 146.52 16.6669C146.975 16.9993 147.508 17.1655 148.117 17.1655C148.567 17.1655 148.97 17.0732 149.327 16.8885C149.69 16.7038 149.988 16.4361 150.222 16.0852C150.462 15.7282 150.619 15.3004 150.693 14.8018H154.405C154.343 15.8852 154.048 16.8393 153.518 17.6641C152.995 18.4827 152.272 19.1229 151.349 19.5845C150.425 20.0462 149.333 20.277 148.071 20.277ZM163.331 20.277C161.878 20.277 160.629 19.9692 159.582 19.3537C158.542 18.732 157.742 17.8703 157.182 16.7685C156.628 15.6667 156.351 14.3987 156.351 12.9645C156.351 11.5118 156.631 10.2377 157.191 9.14204C157.757 8.04025 158.56 7.18158 159.601 6.56605C160.641 5.94437 161.878 5.63352 163.312 5.63352C164.55 5.63352 165.633 5.85819 166.562 6.30753C167.492 6.75686 168.227 7.38778 168.769 8.20028C169.311 9.01278 169.609 9.96686 169.665 11.0625H165.953C165.848 10.3546 165.571 9.78527 165.122 9.3544C164.679 8.91738 164.097 8.69886 163.377 8.69886C162.768 8.69886 162.235 8.86506 161.78 9.19744C161.33 9.52367 160.979 10.0007 160.727 10.6286C160.475 11.2564 160.349 12.0166 160.349 12.9091C160.349 13.8139 160.472 14.5833 160.718 15.2173C160.97 15.8513 161.324 16.3345 161.78 16.6669C162.235 16.9993 162.768 17.1655 163.377 17.1655C163.826 17.1655 164.229 17.0732 164.586 16.8885C164.95 16.7038 165.248 16.4361 165.482 16.0852C165.722 15.7282 165.879 15.3004 165.953 14.8018H169.665C169.603 15.8852 169.308 16.8393 168.778 17.6641C168.255 18.4827 167.532 19.1229 166.608 19.5845C165.685 20.0462 164.593 20.277 163.331 20.277ZM172.183 20V5.81818H176.116V20H172.183ZM174.159 3.99006C173.574 3.99006 173.072 3.79616 172.654 3.40838C172.241 3.01444 172.035 2.54356 172.035 1.99574C172.035 1.45407 172.241 0.989346 172.654 0.601562C173.072 0.207622 173.574 0.0106524 174.159 0.0106524C174.743 0.0106524 175.242 0.207622 175.654 0.601562C176.073 0.989346 176.282 1.45407 176.282 1.99574C176.282 2.54356 176.073 3.01444 175.654 3.40838C175.242 3.79616 174.743 3.99006 174.159 3.99006Z" fill="black"/>
</svg>

<svg width="177" height="21" fill="none" xmlns="http://www.w3.org/2000/svg"><path d="M16.762 1.09V20H13.31L5.083 8.099h-.139V20H.946V1.09h3.509l8.162 11.893h.166V1.091h3.98ZM19.992 20V5.818h3.933V20H19.99Zm1.975-16.01a2.137 2.137 0 0 1-1.505-.582c-.412-.394-.618-.864-.618-1.412 0-.542.206-1.007.618-1.394.419-.394.92-.591 1.505-.591.585 0 1.084.197 1.496.59.419.388.628.853.628 1.395 0 .548-.21 1.018-.628 1.412a2.105 2.105 0 0 1-1.496.582Zm9.042 7.811V20h-3.933V5.818h3.748V8.32h.166a3.957 3.957 0 0 1 1.58-1.957c.738-.486 1.633-.73 2.686-.73.985 0 1.843.216 2.576.647.732.43 1.302 1.046 1.708 1.846.406.794.61 1.742.61 2.844V20h-3.934v-8.328c.006-.868-.215-1.545-.665-2.031-.449-.493-1.068-.739-1.855-.739-.53 0-.998.114-1.404.342-.4.227-.714.56-.942.997-.221.43-.335.95-.341 1.56Zm16.284 8.467c-.904 0-1.71-.157-2.419-.471a3.894 3.894 0 0 1-1.68-1.413c-.406-.628-.61-1.41-.61-2.345 0-.788.145-1.45.434-1.985.29-.536.684-.966 1.182-1.293a5.732 5.732 0 0 1 1.7-.738 12.95 12.95 0 0 1 2.012-.351c.825-.086 1.49-.166 1.994-.24.505-.08.871-.197 1.099-.351.228-.154.342-.382.342-.683v-.056c0-.584-.185-1.037-.554-1.357-.364-.32-.88-.48-1.551-.48-.708 0-1.272.157-1.69.47a2.167 2.167 0 0 0-.831 1.164l-3.638-.295a4.943 4.943 0 0 1 1.09-2.235c.541-.634 1.24-1.12 2.096-1.458.861-.345 1.858-.517 2.99-.517.789 0 1.543.092 2.263.277.726.184 1.37.47 1.93.858a4.173 4.173 0 0 1 1.339 1.496c.326.603.489 1.326.489 2.17V20h-3.73v-1.967h-.111a4.003 4.003 0 0 1-.914 1.173 4.23 4.23 0 0 1-1.376.785c-.535.184-1.154.277-1.856.277Zm1.127-2.715c.578 0 1.09-.114 1.532-.341a2.714 2.714 0 0 0 1.044-.942c.252-.394.378-.84.378-1.339v-1.505c-.123.08-.292.154-.508.222-.209.061-.446.12-.71.175-.265.05-.53.096-.794.139l-.72.101a4.863 4.863 0 0 0-1.21.323 1.933 1.933 0 0 0-.803.6c-.191.247-.287.554-.287.924 0 .535.194.945.582 1.228.394.277.892.415 1.496.415Zm32.687-9.842h-4.044a3.957 3.957 0 0 0-.453-1.394 3.548 3.548 0 0 0-.877-1.053 3.86 3.86 0 0 0-1.237-.665 4.732 4.732 0 0 0-1.505-.23c-.979 0-1.831.243-2.558.729-.726.48-1.29 1.182-1.69 2.105-.4.917-.6 2.031-.6 3.343 0 1.348.2 2.48.6 3.397.407.917.973 1.61 1.7 2.078.726.467 1.566.701 2.52.701.536 0 1.031-.07 1.487-.212.461-.142.87-.348 1.228-.619.357-.277.652-.612.886-1.006a3.92 3.92 0 0 0 .499-1.348l4.044.018a7.315 7.315 0 0 1-.785 2.512c-.413.8-.97 1.517-1.671 2.151-.696.628-1.527 1.127-2.493 1.496-.96.363-2.047.545-3.26.545-1.686 0-3.194-.382-4.523-1.145-1.324-.764-2.37-1.869-3.14-3.315-.763-1.447-1.145-3.198-1.145-5.253 0-2.063.388-3.817 1.164-5.263.775-1.447 1.828-2.549 3.157-3.306C69.741 1.214 71.237.832 72.9.832c1.095 0 2.11.154 3.046.462a7.725 7.725 0 0 1 2.503 1.348 6.934 6.934 0 0 1 1.772 2.151c.462.85.758 1.822.887 2.918Zm6.837 12.557c-.905 0-1.712-.157-2.42-.471a3.894 3.894 0 0 1-1.68-1.413c-.406-.628-.61-1.41-.61-2.345 0-.788.146-1.45.435-1.985.29-.536.683-.966 1.182-1.293a5.73 5.73 0 0 1 1.698-.738 12.95 12.95 0 0 1 2.013-.351c.825-.086 1.49-.166 1.995-.24.504-.08.87-.197 1.098-.351.228-.154.342-.382.342-.683v-.056c0-.584-.185-1.037-.554-1.357-.363-.32-.88-.48-1.551-.48-.708 0-1.271.157-1.69.47a2.167 2.167 0 0 0-.83 1.164l-3.638-.295a4.942 4.942 0 0 1 1.089-2.235c.542-.634 1.24-1.12 2.096-1.458.862-.345 1.859-.517 2.991-.517.788 0 1.542.092 2.262.277.727.184 1.37.47 1.93.858a4.174 4.174 0 0 1 1.339 1.496c.326.603.49 1.326.49 2.17V20H92.2v-1.967h-.112a4.001 4.001 0 0 1-.914 1.173 4.23 4.23 0 0 1-1.376.785c-.535.184-1.154.277-1.855.277Zm1.126-2.715c.579 0 1.09-.114 1.533-.341a2.714 2.714 0 0 0 1.043-.942c.252-.394.379-.84.379-1.339v-1.505c-.123.08-.293.154-.508.222-.21.061-.446.12-.711.175-.265.05-.53.096-.794.139l-.72.101a4.863 4.863 0 0 0-1.21.323 1.934 1.934 0 0 0-.803.6c-.19.247-.286.554-.286.924 0 .535.194.945.581 1.228.394.277.893.415 1.496.415ZM98.982 20V5.818h3.813v2.475h.148c.258-.88.692-1.545 1.301-1.995a3.426 3.426 0 0 1 2.106-.683c.197 0 .409.012.637.037.227.025.427.058.6.102v3.49a5.14 5.14 0 0 0-.767-.148 6.87 6.87 0 0 0-.895-.065c-.579 0-1.096.126-1.551.379-.45.246-.807.59-1.071 1.034-.259.443-.388.954-.388 1.533V20h-3.933Zm15.204.23c-1.077 0-2.053-.276-2.927-.83-.868-.56-1.557-1.382-2.068-2.465-.505-1.09-.757-2.425-.757-4.007 0-1.625.262-2.977.785-4.054.523-1.083 1.219-1.892 2.086-2.428a5.349 5.349 0 0 1 2.872-.812c.794 0 1.456.135 1.985.406.535.264.966.597 1.293.997.332.394.584.782.757 1.163h.12V1.09h3.924V20h-3.878v-2.271h-.166a5.1 5.1 0 0 1-.785 1.172c-.333.382-.766.699-1.302.951-.529.253-1.176.379-1.939.379Zm1.247-3.13c.634 0 1.169-.172 1.606-.516.443-.351.782-.84 1.016-1.468.24-.628.36-1.364.36-2.207 0-.843-.117-1.576-.351-2.197-.234-.622-.573-1.102-1.016-1.44-.443-.34-.981-.509-1.615-.509-.647 0-1.192.176-1.635.527-.443.35-.778.837-1.006 1.459-.228.621-.342 1.341-.342 2.16 0 .825.114 1.554.342 2.188.234.628.569 1.12 1.006 1.478.443.35.988.526 1.635.526Zm19.151-3.138V5.818h3.933V20h-3.776v-2.576h-.148a4.186 4.186 0 0 1-1.597 2.004c-.739.504-1.64.757-2.705.757-.948 0-1.782-.216-2.502-.647-.721-.43-1.284-1.043-1.69-1.837-.4-.794-.603-1.745-.609-2.853v-9.03h3.933v8.328c.006.837.231 1.5.674 1.985.443.487 1.037.73 1.782.73.474 0 .917-.108 1.329-.323a2.53 2.53 0 0 0 .997-.98c.259-.43.385-.962.379-1.596Zm13.487 6.315c-1.453 0-2.702-.308-3.749-.923a6.24 6.24 0 0 1-2.4-2.585c-.554-1.102-.831-2.37-.831-3.804 0-1.453.28-2.727.84-3.823a6.242 6.242 0 0 1 2.41-2.576c1.04-.622 2.277-.932 3.712-.932 1.237 0 2.32.224 3.25.674.929.449 1.665 1.08 2.206 1.892.542.813.84 1.767.896 2.863h-3.712c-.104-.708-.381-1.278-.831-1.709-.443-.437-1.025-.655-1.745-.655-.609 0-1.142.166-1.597.498-.449.327-.8.804-1.053 1.432-.252.627-.378 1.388-.378 2.28 0 .905.123 1.674.369 2.308.252.634.606 1.117 1.062 1.45.455.332.988.498 1.597.498.45 0 .853-.092 1.21-.276.363-.185.661-.453.895-.804.24-.357.397-.785.471-1.283h3.712c-.062 1.083-.357 2.037-.887 2.862-.523.819-1.246 1.459-2.169 1.92-.924.462-2.016.693-3.278.693Zm15.26 0c-1.453 0-2.702-.308-3.749-.923a6.24 6.24 0 0 1-2.4-2.585c-.554-1.102-.831-2.37-.831-3.804 0-1.453.28-2.727.84-3.823a6.235 6.235 0 0 1 2.41-2.576c1.04-.622 2.277-.932 3.711-.932 1.238 0 2.321.224 3.25.674.93.449 1.665 1.08 2.207 1.892.542.813.84 1.767.896 2.863h-3.712c-.105-.708-.382-1.278-.831-1.709-.443-.437-1.025-.655-1.745-.655-.609 0-1.142.166-1.597.498-.45.327-.801.804-1.053 1.432-.252.627-.378 1.388-.378 2.28 0 .905.123 1.674.369 2.308.252.634.606 1.117 1.062 1.45.455.332.988.498 1.597.498.449 0 .852-.092 1.209-.276.364-.185.662-.453.896-.804.24-.357.397-.785.471-1.283h3.712c-.062 1.083-.357 2.037-.887 2.862-.523.819-1.246 1.459-2.17 1.92-.923.462-2.015.693-3.277.693Zm8.852-.277V5.818h3.933V20h-3.933Zm1.976-16.01a2.136 2.136 0 0 1-1.505-.582c-.413-.394-.619-.864-.619-1.412 0-.542.206-1.007.619-1.394.418-.394.92-.591 1.505-.591.584 0 1.083.197 1.495.59.419.388.628.853.628 1.395 0 .548-.209 1.018-.628 1.412a2.104 2.104 0 0 1-1.495.582Z" fill="#000"/></svg>
